svg/UnitedNationsOCHA-Humanitarian/food_NFI_oil_icon_box.svg

<svg xmlns="http://www.w3.org/2000/svg" viewBox="0 0 32 32" enable-background="new 0 0 32 32"><path fill="#407cca" d="m25.6 0h-19.2c-3.52 0-6.4 2.88-6.4 6.4v19.2c0 3.52 2.88 6.4 6.4 6.4h19.2c3.521 0 6.4-2.88 6.4-6.4v-19.2c0-3.52-2.88-6.4-6.4-6.4m-6.313 23.21c.18.822.494 1.791.189 3.256-.286 1.366-1.33 1.533-1.33 1.533h-4.293c0 0-1.043-.167-1.33-1.533-.308-1.465.009-2.434.186-3.256.181-.825.119-1.242-.152-2.573-.438-2.14-.401-5.836-.167-7.613.234-1.776 1.087-2.892 1.497-3.733.675-1.381.681-3.095.681-3.095h-.376v-.658l.139-.102v-1.33c0 0 .613-.136 1.669-.102 1.057-.035 1.669.102 1.669.102v1.33l.136.102v.658h-.377c0 0 .001 1.714.685 3.095.409.841 1.26 1.957 1.497 3.733.234 1.777.271 5.473-.167 7.613-.274 1.331-.334 1.748-.156 2.573"/></svg>

<?xml version="1.0" encoding="utf-8"?>
<!-- Generator: Adobe Illustrator 16.0.3, SVG Export Plug-In . SVG Version: 6.00 Build 0)  -->
<!DOCTYPE svg PUBLIC "-//W3C//DTD SVG 1.1//EN" "http://www.w3.org/Graphics/SVG/1.1/DTD/svg11.dtd">
<svg version="1.1" id="Layer_1" xmlns="http://www.w3.org/2000/svg" xmlns:xlink="http://www.w3.org/1999/xlink" x="0px" y="0px"
	 width="32px" height="32px" viewBox="0 0 32 32" enable-background="new 0 0 32 32" xml:space="preserve">
<path fill="#407CCA" d="M25.6,0H6.4C2.88,0,0,2.88,0,6.4v19.2C0,29.12,2.88,32,6.4,32h19.2c3.521,0,6.4-2.88,6.4-6.4V6.4
	C32,2.88,29.12,0,25.6,0z M19.287,23.211c0.18,0.822,0.494,1.791,0.189,3.256C19.19,27.833,18.146,28,18.146,28h-4.293
	c0,0-1.043-0.167-1.33-1.533c-0.308-1.465,0.009-2.434,0.186-3.256c0.181-0.825,0.119-1.242-0.152-2.573
	c-0.438-2.14-0.401-5.836-0.167-7.613c0.234-1.776,1.087-2.892,1.497-3.733c0.675-1.381,0.681-3.095,0.681-3.095h-0.376V5.539
	l0.139-0.102v-1.33c0,0,0.613-0.136,1.669-0.102c1.057-0.035,1.669,0.102,1.669,0.102v1.33l0.136,0.102v0.658h-0.377
	c0,0,0.01,1.714,0.685,3.095c0.409,0.841,1.26,1.957,1.497,3.733c0.234,1.777,0.271,5.473-0.167,7.613
	C19.169,21.969,19.109,22.386,19.287,23.211z"/>
</svg>
